resources/svg/number-4.svg

<svg fill="currentColor" viewBox="0 0 24 24" xmlns="http://www.w3.org/2000/svg"><path d="M16.0001 1.5L16 16H19.0001V18H16L16.0001 22H14.0001L14 18H4V16.898L14.0001 1.5H16.0001ZM14 16V5.171L6.968 16H14Z"/></svg>

<svg xmlns="http://www.w3.org/2000/svg" viewBox="0 0 24 24" fill="currentColor">
    <g>
        <path fill="none" d="M0 0h24v24H0z"/>
        <path d="M16 1.5V16h3v2h-3v4h-2v-4H4v-1.102L14 1.5h2zM14 16V5.171L6.968 16H14z"/>
    </g>
</svg>
